X: 10
T: Castle Kelly
R: reel
M: 4/4
L: 1/8
K: Ador
|: "Am"A2 cA (3AAA cA | "G"GEDE GE (3EEE | "Am"AAcA GAcd | "G"ecdB "Am"cAAA |
"Am"(3AAA cA ABcA | "G"GEDE GEDE | "Am"(3AAA cA GAcd | "G"ecdB "Am"cA A2 :|
|: "Am"agec "G"(3ddd ed | "Am"cAGE "Em"(3GGG EG | "Am"agec "G"(3ddd cd | "Em"egag "Am"(3aaa dg |
"Am"agec "G"(3ddd ed | "Am"cAGE "G"(3GGG EG | "Am"(3AAA cA GAcd | "G"ecdB "Am"cA A2 :|


Tune 21	Setting 12400

